img/logo.svg

<svg width="127" height="26" viewBox="0 0 127 26" fill="none" xmlns="http://www.w3.org/2000/svg">
<path d="M55.4956 2.31115C54.1964 0.900417 52.0072 0.196289 48.9279 0.196289H30.9478V7.93922H37.6023V5.97063H47.5915C48.8684 5.97063 49.689 6.19874 50.0584 6.65493C50.4278 7.11113 50.6113 8.0136 50.6113 9.35987C50.6113 10.2028 50.5816 10.8425 50.5245 11.2813C50.465 11.7202 50.3163 12.0772 50.0758 12.3524C49.8353 12.6276 49.5378 12.7962 49.1808 12.8607C48.8237 12.9251 48.2932 12.9574 47.5915 12.9574H39.4692H37.5998H30.9453V25.1433H37.5998V18.7342H48.9254C50.3411 18.7342 51.5336 18.6301 52.4981 18.4193C53.4625 18.2086 54.2733 17.8888 54.9303 17.4623C55.5848 17.0359 56.0956 16.4383 56.4576 15.6722C56.8195 14.9061 57.0749 14.0284 57.2212 13.0392C57.3675 12.0499 57.4419 10.8252 57.4419 9.35987C57.4443 6.07229 56.7948 3.72189 55.4956 2.31115Z" fill="#DA2B36"/>
<path d="M14.4693 12.9594V16.6735H22.9858C22.9858 17.7991 22.7057 18.4313 22.1428 19.0164C21.58 19.6015 20.6726 19.8941 19.4206 19.8941H11.1148C10.6115 19.8941 10.1875 19.8767 9.84292 19.842C9.49829 19.8073 9.14871 19.7305 8.79912 19.6139C8.44706 19.4974 8.16194 19.3263 7.9388 19.1057C7.71566 18.8825 7.51731 18.5949 7.34128 18.2354C7.16525 17.8784 7.03632 17.4297 6.95451 16.8916C6.87269 16.3536 6.83054 15.7214 6.83054 14.995V10.9388C6.83054 8.79664 7.10079 7.34624 7.6388 6.58509C8.17681 5.82394 9.27763 5.4446 10.9388 5.4446H18.6991C19.0958 5.4446 19.3834 5.44707 19.5594 5.45451C19.7354 5.45947 20.0032 5.47931 20.3677 5.50658C20.7296 5.53633 21.0024 5.58096 21.1834 5.63798C21.3643 5.69749 21.5875 5.78426 21.8503 5.90079C22.1131 6.01732 22.309 6.1636 22.4379 6.33963C22.5668 6.51567 22.6858 6.74128 22.7974 7.01649C22.9065 7.28673 22.966 7.59417 22.9809 7.9388H29.742C29.742 6.84541 29.6329 5.87352 29.4172 5.02311C29.2015 4.16775 28.9436 3.46362 28.6436 2.90825C28.3461 2.35288 27.8998 1.88429 27.3098 1.50247C26.7197 1.12313 26.1916 0.835531 25.7304 0.642144C25.2668 0.448757 24.6073 0.302478 23.747 0.203305C22.8866 0.104132 22.1949 0.044628 21.6743 0.0272727C21.1536 0.00991745 20.4024 0 19.4181 0H10.9388C9.99168 0 9.14375 0.0297515 8.40243 0.086776C7.65863 0.14628 6.895 0.262808 6.11154 0.43884C5.32807 0.614872 4.6413 0.84545 4.05618 1.13305C3.47105 1.42065 2.91569 1.80247 2.38759 2.28346C1.86197 2.76445 1.42809 3.33221 1.08842 3.98675C0.748756 4.64129 0.48347 5.42972 0.290082 6.34707C0.0966951 7.2669 0 8.30574 0 9.46358V15.9421C0 17.0776 0.0917365 18.0991 0.272727 19.0065C0.453718 19.9139 0.701649 20.6924 1.019 21.342C1.33388 21.9916 1.74049 22.5569 2.23883 23.0354C2.73717 23.5164 3.26279 23.9007 3.81816 24.1932C4.37353 24.4858 5.02063 24.7189 5.75947 24.8949C6.49583 25.0709 7.22723 25.1899 7.95367 25.2544C8.68012 25.3189 9.49333 25.3511 10.3933 25.3511H19.4181C20.8115 25.3511 21.9891 25.3015 22.9561 25.2023C23.923 25.1032 24.8106 24.9123 25.6238 24.6321C26.437 24.3519 27.0866 23.9825 27.5726 23.5263C28.0585 23.0701 28.4726 22.4652 28.8197 21.709C29.1643 20.9528 29.4048 20.0701 29.5387 19.0586C29.6726 18.047 29.7395 17.8536 29.7395 16.4255V12.957H14.4693V12.9594Z" fill="#DA2B36"/>
<path d="M66.0403 1.26982V9.05738H65.0783V1.26982H62.832V0.404541H68.2766V1.26982H66.0403Z" fill="#292D2F"/>
<path d="M73.4559 9.00773C73.1038 9.17632 72.6823 9.26062 72.1939 9.26062C71.7055 9.26062 71.284 9.17632 70.9319 9.00773C70.5799 8.83913 70.3022 8.62344 70.1038 8.35815C69.903 8.09286 69.7443 7.75319 69.6303 7.33667C69.5138 6.92014 69.4369 6.51353 69.4022 6.11684C69.365 5.72014 69.3477 5.25403 69.3477 4.71602C69.3477 4.3466 69.3601 4.00693 69.3848 3.69454C69.4096 3.38214 69.4543 3.04495 69.5237 2.67801C69.5906 2.31355 69.6948 1.9962 69.8311 1.72347C69.9675 1.45075 70.1361 1.19786 70.3369 0.959841C70.5377 0.724305 70.7956 0.543314 71.1129 0.419348C71.4303 0.295382 71.7923 0.233398 72.2014 0.233398C72.6898 0.233398 73.1137 0.327613 73.4683 0.516041C73.8253 0.70447 74.103 0.940006 74.3038 1.22513C74.5046 1.51025 74.6633 1.86479 74.7848 2.28876C74.9038 2.71272 74.9807 3.10942 75.0129 3.47884C75.0451 3.84825 75.06 4.25982 75.06 4.71602C75.06 5.25403 75.0427 5.72014 75.0055 6.11684C74.9683 6.51353 74.8939 6.92014 74.7774 7.33667C74.6608 7.75319 74.5022 8.09286 74.2964 8.35815C74.0856 8.62344 73.808 8.84161 73.4559 9.00773ZM74.0559 4.5747C74.0559 4.05404 74.0286 3.59784 73.9716 3.20363C73.9146 2.8119 73.8204 2.44992 73.6889 2.12264C73.5575 1.79537 73.3617 1.54248 73.1063 1.36645C72.8509 1.19042 72.5385 1.10116 72.1691 1.10116C71.8096 1.10116 71.5071 1.18794 71.2617 1.35901C71.0162 1.53009 70.8278 1.78298 70.6964 2.11521C70.565 2.44744 70.4733 2.80942 70.4212 3.19619C70.3691 3.58545 70.3443 4.03916 70.3443 4.55982C70.3443 5.93089 70.4658 6.91022 70.7113 7.50278C70.9543 8.09534 71.4501 8.39286 72.1964 8.39286C72.9427 8.39286 73.4385 8.09534 73.6865 7.50278C73.9319 6.91518 74.0559 5.93585 74.0559 4.5747Z" fill="#292D2F"/>
<path d="M76.8555 0.404297H82.0819V9.05714H81.1224V1.26958H77.8174V9.05714H76.8555V0.404297Z" fill="#292D2F"/>
<path d="M84.7392 0.404541H89.569V9.05738H88.607V1.26982H85.6987V4.69377C85.6987 5.04584 85.6962 5.33592 85.6938 5.55906C85.6888 5.78219 85.6764 6.0698 85.6516 6.41938C85.6268 6.76897 85.5946 7.05409 85.5549 7.27971C85.5153 7.50533 85.4508 7.74582 85.3615 8.00615C85.2723 8.26648 85.1706 8.47226 85.0541 8.62598C84.9376 8.77722 84.7888 8.90615 84.6029 9.01028C84.4194 9.11441 84.2111 9.16647 83.9781 9.16647C83.7847 9.16647 83.5938 9.14168 83.4004 9.09457V8.24169C83.512 8.28136 83.6359 8.30119 83.7723 8.30119C84.1888 8.30119 84.4541 8.00119 84.5657 7.4012C84.6772 6.8012 84.7343 5.72765 84.7343 4.18055V0.404541H84.7392Z" fill="#292D2F"/>
<path d="M91.6121 0.404541H92.5741V7.47062C92.5741 7.69623 92.5666 8.01607 92.5493 8.4326H92.5741C92.589 8.39293 92.6336 8.23177 92.7055 7.95161C92.7774 7.67144 92.8493 7.43591 92.9212 7.24252L95.6137 0.404541H97.0071V9.05738H96.0451V2.1599C96.0451 1.85495 96.0526 1.41363 96.0699 0.838423H96.0451C95.941 1.46321 95.8294 1.9318 95.7079 2.2442L93.003 9.05738H91.6096V0.404541H91.6121Z" fill="#292D2F"/>
<path d="M99.0508 9.05714V0.404297H101.322C102.108 0.404297 102.7 0.597685 103.1 0.98198C103.501 1.36628 103.7 1.89437 103.7 2.56875C103.7 3.05718 103.59 3.46874 103.37 3.80097C103.149 4.1332 102.839 4.35138 102.438 4.45551V4.48031C102.861 4.53733 103.219 4.75551 103.506 5.13485C103.794 5.51666 103.938 5.99765 103.938 6.58277C103.938 7.3836 103.724 7.99599 103.295 8.42243C102.866 8.8464 102.247 9.05962 101.438 9.05962H99.0508V9.05714ZM100.013 1.26958V4.08114H101.203C101.709 4.08114 102.083 3.97204 102.333 3.75139C102.581 3.53073 102.705 3.15635 102.705 2.62825C102.705 1.7233 102.237 1.26958 101.3 1.26958H100.013ZM100.013 4.94642V8.19186H101.443C101.964 8.19186 102.343 8.06293 102.584 7.80012C102.824 7.53979 102.943 7.12823 102.943 6.5679C102.943 5.48691 102.415 4.94642 101.357 4.94642H100.013Z" fill="#292D2F"/>
<path d="M106.657 0.404297V4.08114H109.962V0.404297H110.924V9.05714H109.962V4.94642H106.657V9.05714H105.695V0.404297H106.657Z" fill="#292D2F"/>
<path d="M113.929 0.404297V4.08114H115.069C115.486 4.08114 115.853 4.1208 116.17 4.20014C116.487 4.27948 116.778 4.41089 117.04 4.59188C117.306 4.77287 117.506 5.03319 117.648 5.37286C117.787 5.71253 117.859 6.12906 117.859 6.61748C117.859 7.45054 117.63 8.06541 117.174 8.4621C116.718 8.85879 116.081 9.05714 115.263 9.05714H112.967V0.404297H113.929ZM113.929 4.94642V8.19186H115.022C115.64 8.19186 116.101 8.07533 116.403 7.84227C116.708 7.60921 116.859 7.2026 116.859 6.61748C116.859 5.9679 116.688 5.52906 116.349 5.296C116.009 5.06295 115.473 4.94642 114.744 4.94642H113.929ZM120.139 0.404297V9.05714H119.178V0.404297H120.139Z" fill="#292D2F"/>
<path d="M122.182 0.404297H126.52V1.26958H123.144V4.08114H126.305V4.94642H123.144V8.19186H126.533V9.05714H122.184V0.404297H122.182Z" fill="#292D2F"/>
<path d="M64.5284 16.9062V21.3517L67.6771 16.9062H68.8796L66.1152 20.5236L68.9639 25.5591H67.8457L65.5375 21.2823L64.5284 22.5442V25.5616H63.5664V16.9087H64.5284V16.9062Z" fill="#292D2F"/>
<path d="M69.5605 25.5591L72.025 16.9062H73.2994L75.7266 25.5591H74.668L73.9837 23.0723H71.2564L70.6192 25.5591H69.5605ZM73.768 22.2046L72.6498 17.6029H72.625L71.4845 22.2046H73.768Z" fill="#292D2F"/>
<path d="M78.0108 21.8927V25.5571H77.0488V16.9043H79.4513C80.2695 16.9043 80.9067 17.1051 81.3678 17.5043C81.829 17.9059 82.0595 18.5183 82.0595 19.344C82.0595 20.2811 81.8141 20.9406 81.3207 21.32C80.8273 21.7018 80.1455 21.8902 79.2728 21.8902H78.0108V21.8927ZM78.0108 17.7721V21.0274H78.948C79.6844 21.0274 80.2224 20.9183 80.5571 20.7026C80.8918 20.4869 81.0629 20.0332 81.0629 19.344C81.0629 18.7588 80.9116 18.3497 80.6067 18.1192C80.3017 17.8861 79.8405 17.7696 79.2257 17.7696H78.0108V17.7721Z" fill="#292D2F"/>
<path d="M86.3372 17.7715V25.5591H85.3752V17.7715H83.1289V16.9062H88.5735V17.7715H86.3372Z" fill="#292D2F"/>
<path d="M90.8448 16.9062V20.5831H91.9853C92.4018 20.5831 92.7687 20.6228 93.0861 20.7021C93.4035 20.7814 93.6935 20.9128 93.9563 21.0938C94.2216 21.2748 94.4225 21.5352 94.5638 21.8748C94.7026 22.2145 94.7745 22.631 94.7745 23.1194C94.7745 23.9525 94.5464 24.5674 94.0902 24.9641C93.634 25.3607 92.9968 25.5591 92.1787 25.5591H89.8828V16.9062H90.8448ZM90.8448 21.4484V24.6938H91.9382C92.5555 24.6938 93.0167 24.5773 93.3192 24.3442C93.6241 24.1112 93.7754 23.7046 93.7754 23.1194C93.7754 22.4699 93.6043 22.031 93.2646 21.798C92.9249 21.5649 92.3894 21.4484 91.6605 21.4484H90.8448ZM97.058 16.9062V25.5591H96.096V16.9062H97.058Z" fill="#292D2F"/>
<path d="M22.9805 10.4102H37.4721" stroke="#292D2F" stroke-width="0.99173" stroke-miterlimit="10" stroke-linecap="round"/>
</svg>

<svg width="127" height="26" fill="none" xmlns="http://www.w3.org/2000/svg"><path d="M55.496 2.311C54.196.901 52.007.196 48.928.196h-17.98V7.94h6.654V5.971h9.99c1.276 0 2.097.228 2.466.684.37.456.553 1.359.553 2.705 0 .843-.03 1.482-.086 1.921-.06.44-.209.796-.45 1.071-.24.276-.537.444-.894.509-.357.064-.888.096-1.59.096H30.946v12.186H37.6v-6.409h11.325c1.416 0 2.609-.104 3.573-.315.965-.21 1.775-.53 2.432-.957.655-.426 1.166-1.024 1.528-1.79.361-.766.617-1.644.763-2.633.147-.99.22-2.214.22-3.68.003-3.287-.646-5.637-1.945-7.048ZM14.47 12.96v3.713h8.516c0 1.126-.28 1.758-.843 2.343-.563.586-1.47.878-2.722.878h-8.306c-.504 0-.928-.017-1.272-.052a4.833 4.833 0 0 1-1.044-.228 2.17 2.17 0 0 1-.86-.508 3.213 3.213 0 0 1-.598-.87c-.176-.358-.305-.806-.386-1.344a12.77 12.77 0 0 1-.124-1.897v-4.056c0-2.142.27-3.593.808-4.354.538-.761 1.639-1.14 3.3-1.14h7.76c.397 0 .684.002.86.01.176.004.444.024.809.052.362.03.634.074.815.131.181.06.404.146.667.263.263.116.459.263.588.439.129.176.248.401.36.676.109.27.168.578.183.923h6.761c0-1.094-.11-2.065-.325-2.916-.216-.855-.473-1.56-.773-2.115-.298-.555-.744-1.024-1.334-1.406-.59-.379-1.118-.666-1.58-.86-.463-.193-1.123-.34-1.983-.439a26.92 26.92 0 0 0-2.073-.176A72.173 72.173 0 0 0 19.418 0h-8.48c-.946 0-1.794.03-2.536.087a16.42 16.42 0 0 0-2.29.352c-.784.176-1.47.406-2.056.694-.585.288-1.14.67-1.668 1.15a6.09 6.09 0 0 0-1.3 1.704C.748 4.64.483 5.43.29 6.347.097 7.267 0 8.306 0 9.464v6.478c0 1.136.092 2.157.273 3.064.18.908.429 1.686.746 2.336a5.88 5.88 0 0 0 1.22 1.693 6.912 6.912 0 0 0 1.58 1.158c.555.293 1.202.526 1.94.702.737.176 1.468.295 2.195.36.726.064 1.54.096 2.44.096h9.024c1.393 0 2.571-.05 3.538-.149.967-.099 1.855-.29 2.668-.57.813-.28 1.463-.65 1.949-1.106.485-.456.9-1.06 1.247-1.817.344-.756.585-1.639.719-2.65.134-1.012.2-1.205.2-2.634v-3.468H14.47v.002Z" fill="#DA2B36"/><path d="M66.04 1.27v7.787h-.962V1.27h-2.246V.405h5.445v.865H66.04ZM73.456 9.008c-.352.168-.774.253-1.262.253-.489 0-.91-.085-1.262-.253a2.189 2.189 0 0 1-.828-.65c-.201-.265-.36-.605-.474-1.021a6.7 6.7 0 0 1-.228-1.22 15.276 15.276 0 0 1-.054-1.401 13 13 0 0 1 .037-1.021c.025-.313.07-.65.139-1.017.067-.364.17-.682.307-.955.136-.272.305-.525.506-.763.2-.236.459-.417.776-.54.317-.125.68-.187 1.088-.187.489 0 .913.095 1.267.283.357.188.635.424.836.71.2.284.36.639.48 1.063.12.424.197.82.229 1.19s.047.78.047 1.237c0 .538-.017 1.004-.055 1.4a6.92 6.92 0 0 1-.228 1.22c-.116.417-.275.757-.48 1.022a2.31 2.31 0 0 1-.841.65Zm.6-4.433c0-.521-.027-.977-.084-1.371a4.721 4.721 0 0 0-.283-1.081 1.628 1.628 0 0 0-.583-.757c-.255-.176-.567-.265-.937-.265-.36 0-.662.087-.907.258-.246.171-.434.424-.566.756a4.607 4.607 0 0 0-.275 1.081c-.052.39-.077.843-.077 1.364 0 1.37.122 2.35.367 2.943.243.592.74.89 1.485.89.747 0 1.243-.298 1.49-.89.246-.588.37-1.567.37-2.928ZM76.856.404h5.226v8.653h-.96V1.27h-3.305v7.787h-.961V.404ZM84.74.405h4.829v8.652h-.962V1.27h-2.908v3.424c0 .352-.003.642-.005.865-.005.223-.018.51-.042.86-.025.35-.057.635-.097.86-.04.226-.104.467-.194.727-.089.26-.19.466-.307.62-.116.151-.265.28-.451.384a1.244 1.244 0 0 1-.625.156c-.193 0-.384-.024-.578-.071v-.853c.112.04.236.06.372.06.417 0 .682-.3.794-.9.111-.6.168-1.674.168-3.221V.405h.005ZM91.612.405h.962V7.47c0 .225-.007.545-.025.962h.025c.015-.04.06-.201.132-.481.071-.28.143-.516.215-.71L95.614.406h1.393v8.652h-.962V2.16c0-.305.008-.746.025-1.322h-.025c-.104.625-.216 1.094-.337 1.406l-2.705 6.813H91.61V.405h.002ZM99.05 9.057V.404h2.272c.786 0 1.378.194 1.778.578.401.384.6.912.6 1.587 0 .488-.11.9-.33 1.232-.221.332-.531.55-.932.655v.024c.423.057.781.276 1.068.655.288.382.432.863.432 1.448 0 .8-.214 1.413-.643 1.84-.429.423-1.048.637-1.857.637h-2.387v-.003Zm.963-7.787V4.08h1.19c.506 0 .88-.109 1.13-.33.248-.22.372-.595.372-1.123 0-.905-.468-1.358-1.405-1.358h-1.287Zm0 3.676v3.246h1.43c.521 0 .9-.13 1.141-.392.24-.26.359-.672.359-1.232 0-1.081-.528-1.622-1.586-1.622h-1.344ZM106.657.404v3.677h3.305V.404h.962v8.653h-.962v-4.11h-3.305v4.11h-.962V.404h.962ZM113.929.404v3.677h1.14c.417 0 .784.04 1.101.12.317.078.608.21.87.39.266.182.466.442.608.782.139.34.211.756.211 1.244 0 .834-.229 1.448-.685 1.845-.456.397-1.093.595-1.911.595h-2.296V.404h.962Zm0 4.542v3.246h1.093c.618 0 1.079-.117 1.381-.35.305-.233.456-.64.456-1.225 0-.65-.171-1.088-.51-1.321-.34-.233-.876-.35-1.605-.35h-.815Zm6.21-4.542v8.653h-.961V.404h.961ZM122.182.404h4.338v.866h-3.376V4.08h3.161v.865h-3.161v3.246h3.389v.865h-4.349V.404h-.002ZM64.528 16.906v4.446l3.15-4.446h1.202l-2.765 3.618 2.849 5.035h-1.118l-2.309-4.277-1.009 1.262v3.018h-.962v-8.653h.962v-.003ZM69.56 25.56l2.465-8.654h1.274l2.428 8.653h-1.059l-.684-2.487h-2.728l-.637 2.487h-1.058Zm4.208-3.355-1.118-4.602h-.025l-1.14 4.602h2.283ZM78.01 21.893v3.664h-.961v-8.653h2.402c.819 0 1.456.201 1.917.6.461.402.692 1.014.692 1.84 0 .937-.246 1.597-.74 1.976-.493.382-1.174.57-2.047.57H78.01v.003Zm0-4.12v3.254h.938c.736 0 1.274-.109 1.61-.324.334-.216.505-.67.505-1.359 0-.585-.151-.994-.456-1.225-.305-.233-.766-.35-1.381-.35H78.01v.003ZM86.337 17.771v7.788h-.962v-7.788H83.13v-.865h5.444v.866h-2.236ZM90.845 16.906v3.677h1.14c.417 0 .784.04 1.101.12.317.078.608.21.87.39.266.182.466.442.608.782.139.34.21.756.21 1.244 0 .834-.228 1.448-.684 1.845-.456.397-1.093.595-1.911.595h-2.296v-8.653h.962Zm0 4.542v3.246h1.093c.617 0 1.079-.117 1.381-.35.305-.233.456-.64.456-1.225 0-.65-.17-1.088-.51-1.321-.34-.233-.876-.35-1.605-.35h-.815Zm6.213-4.542v8.653h-.962v-8.653h.962Z" fill="#292D2F"/><path d="M22.98 10.41h14.492" stroke="#292D2F" stroke-width=".992" stroke-miterlimit="10" stroke-linecap="round"/></svg>
